static/img/svg/globe.svg

<svg xmlns="http://www.w3.org/2000/svg" width="24" height="24"><path d="M12 2C6.486 2 2 6.486 2 12s4.486 10 10 10 10-4.486 10-10S17.514 2 12 2zM4.069 13h2.974c.136 2.379.665 4.478 1.556 6.23A8.01 8.01 0 0 1 4.069 13zm2.961-2H4.069a8.012 8.012 0 0 1 4.618-6.273C7.704 6.618 7.136 8.762 7.03 11zm5.522 8.972c-.183.012-.365.028-.552.028-.186 0-.367-.016-.55-.027-1.401-1.698-2.228-4.077-2.409-6.973h6.113c-.208 2.773-1.117 5.196-2.602 6.972zM9.03 11c.139-2.596.994-5.028 2.451-6.974.172-.01.344-.026.519-.026.179 0 .354.016.53.027 1.035 1.364 2.427 3.78 2.627 6.973H9.03zm6.431 8.201c.955-1.794 1.538-3.901 1.691-6.201h2.778a8.005 8.005 0 0 1-4.469 6.201zM17.167 11a14.67 14.67 0 0 0-1.792-6.243A8.014 8.014 0 0 1 19.931 11h-2.764z"/></svg>

<?xml version="1.0" encoding="utf-8"?>
<!-- Generator: Adobe Illustrator 16.0.0, SVG Export Plug-In . SVG Version: 6.00 Build 0)  -->
<!DOCTYPE svg PUBLIC "-//W3C//DTD SVG 1.1//EN" "http://www.w3.org/Graphics/SVG/1.1/DTD/svg11.dtd">
<svg version="1.1" id="Layer_1" xmlns="http://www.w3.org/2000/svg" xmlns:xlink="http://www.w3.org/1999/xlink" x="0px" y="0px"
	 width="24px" height="24px" viewBox="0 0 24 24" enable-background="new 0 0 24 24" xml:space="preserve">
<g>
	<path d="M12,2C6.486,2,2,6.486,2,12s4.486,10,10,10s10-4.486,10-10S17.514,2,12,2z M4.069,13h2.974
		c0.136,2.379,0.665,4.478,1.556,6.23C6.174,18.084,4.416,15.762,4.069,13z M7.03,11H4.069c0.352-2.796,2.147-5.143,4.618-6.273
		C7.704,6.618,7.136,8.762,7.03,11z M12.552,19.972C12.369,19.984,12.187,20,12,20c-0.186,0-0.367-0.016-0.55-0.027
		C10.049,18.275,9.222,15.896,9.041,13h6.113C14.946,15.773,14.037,18.196,12.552,19.972z M9.03,11
		c0.139-2.596,0.994-5.028,2.451-6.974C11.653,4.016,11.825,4,12,4c0.179,0,0.354,0.016,0.53,0.027
		c1.035,1.364,2.427,3.78,2.627,6.973H9.03z M15.461,19.201c0.955-1.794,1.538-3.901,1.691-6.201h2.778
		C19.587,15.739,17.854,18.047,15.461,19.201z M17.167,11c-0.116-2.165-0.73-4.3-1.792-6.243c2.438,1.142,4.207,3.471,4.556,6.243
		H17.167z"/>
</g>
</svg>
